static/img/icons/aws.svg

<svg fill="none" height="26" viewBox="0 0 26 26" width="26" xmlns="http://www.w3.org/2000/svg"><path d="m19.6 1c1.7552.19429 2.9366.63338 3.8184 1.62575 1.5816 1.77994 1.5816 4.6447 1.5816 10.37425 0 5.7296 0 8.5943-1.5816 10.3743-.8818.9924-2.0632 1.4314-3.8184 1.6257m-13.19999 0c-1.75516-.1943-2.93659-.6333-3.81838-1.6257-1.58163-1.78-1.58163-4.6447-1.58163-10.3743 0-5.72955 0-8.59431 1.58163-10.37425.88179-.99237 2.06322-1.43146 3.81838-1.62575" stroke="#fff" stroke-linecap="round" stroke-linejoin="round" stroke-width="1.5"/><g fill="#fff"><path d="m4.07978 15.162c-.18545-.14-.01838-.3302.20288-.2206 2.53834 1.2314 5.66992 1.9775 8.90874 1.9775 2.185 0 4.5857-.3802 6.7948-1.161.3292-.1251.6102.1795.2869.3797-1.9695 1.2163-4.8305 1.8623-7.2909 1.8624-3.44825 0-6.55567-1.0661-8.90242-2.838z"/><path d="m18.7405 15.0671c1.1255-.6607 2.9759-.4707 3.1914-.2505.2153.2256-.0598 1.7721-1.1132 2.5128-.1615.115-.3174.055-.246-.0949.2394-.4954.7724-1.6117.5214-1.8774-.2514-.2703-1.6647-.1301-2.3052-.065-.1914.02-.2214-.1199-.0484-.225z"/><path d="m19.3397 9c.1317 0 .2698.0052.4015.02021.1375.01502.2634.0345.389.0545.1196.025.2329.05086.3406.08086.1077.03003.1924.05961.2522.08964.0834.03987.1428.08.1787.12481.0359.03998.0546.09532.0547.16523v.23555c0 .10498-.0481.15982-.1377.15996-.0479 0-.1263-.01972-.2281-.05976-.3411-.13007-.7241-.1951-1.1489-.19512-.3413 0-.6113.04464-.7968.13974-.1855.09509-.2806.24048-.2807.44558 0 .1402.059.2609.1787.356s.3418.19.6591.2751l.8504.225c.4308.1151.7416.2756.9271.4807.1856.2052.2754.4403.2754.7005 0 .2153-.0538.4108-.1555.581-.1077.17-.2509.3203-.4363.4403-.1856.1252-.408.2153-.6654.2804-.2692.07-.5505.1046-.8556.1046-.3113 0-.6226-.0296-.9219-.0897-.2993-.06-.5329-.1253-.6885-.2004-.0957-.045-.1621-.0947-.1861-.1397-.0239-.0451-.0357-.0956-.0357-.1406v-.2549c0-.105.0481-.1555.1377-.1556.0359 0 .0723.005.1082.015s.0896.0301.1493.0501c.2036.075.4256.1357.6591.1757.2392.04.4725.0598.7116.0598.3772 0 .6711-.0551.8746-.1652s.3112-.2703.3112-.4755c0-.1402-.0542-.2556-.1619-.3507-.1078-.095-.3113-.1801-.6044-.2602l-.8683-.225c-.4369-.1151-.7601-.2854-.9576-.5106-.1976-.2202-.2996-.4657-.2996-.726 0-.2101.0541-.3953.1619-.55544.1077-.16016.2514-.30033.4309-.41045.1795-.11506.3831-.2001.6223-.26016.2395-.06006.4914-.08525.7548-.08525z"/><path clip-rule="evenodd" d="m6.99469 9.00967c.71241 0 1.23415.13575 1.5694.40605.32902.27031.49616.68098.49616 1.23138v1.6216h.01261c0 .1851.02327.3354.06518.4456.04789.1101.10855.2302.19236.3603.02981.04.041.0802.041.1151-.00005.0501-.03575.1003-.11353.1503l-.37737.2101c-.05377.0299-.10778.0448-.15558.0448-.05974-.0001-.12-.0253-.17975-.0703-.0836-.0749-.15574-.1547-.21549-.2347-.05982-.085-.11921-.1802-.185-.2953-.46684.4604-1.05351.6907-1.75967.6908-.50288 0-.90499-.12-1.19834-.3603-.29329-.2403-.44255-.5611-.44255-.9615.00005-.4253.17951-.7707.54451-1.031.36519-.2603.85082-.3902 1.46744-.3902.20331 0 .41263.0145.63386.0395.22145.0251.44912.0657.68852.1108v-.3656c0-.3802-.09535-.6455-.28066-.80073-.19158-.15518-.51557-.23028-.97654-.23028-.20945.00002-.42507.02001-.64648.06504-.2214.04504-.43702.09958-.64647.16963-.09555.03495-.16723.055-.20918.06504-.0417.01-.07177.0149-.09566.0149-.08379 0-.12611-.0496-.12614-.15465v-.24521c0-.08009.01211-.14074.04205-.17578.02994-.03488.08378-.06971.16713-.10459.20952-.09009.46143-.16494.75475-.225.29321-.06504.60434-.09577.93344-.0958zm-.01787 2.52773c-.40072 0-.6939.0654-.8914.2004-.1975.1351-.29322.3255-.29327.5757 0 .2351.0712.4107.22074.5308.14361.1251.35343.1854.6286.1855.19756 0 .40152-.0305.61704-.0905.21542-.0601.4071-.1699.56869-.32.09579-.0951.16801-.2006.20393-.3208.03587-.12.05989-.265.05991-.435v-.211c-.1735-.035-.35936-.0643-.55081-.0843-.19157-.0201-.37784-.0308-.56343-.0308z" fill-rule="evenodd"/><path d="m10.3658 9.13008c.1137.00001.1915.01507.2334.0501.0478.03003.0839.10006.1198.19511l1.006 3.31351.9334-3.31351c.0299-.09992.0658-.16504.1135-.19511.0479-.03003.132-.05009.2397-.0501h.4794c.1135.00002.1918.01509.2396.0501.0478.03012.0896.10024.1135.19511l.9461 3.35391 1.0354-3.35391c.0359-.10003.078-.1651.1198-.19511.048-.02998.1258-.0501.2334-.0501h.5571c.0954.00013.1491.04013.1493.1248 0 .02503-.0056.05083-.0116.08086-.006.02999-.0182.06996-.042.12481l-1.4433 3.86895c-.0358.0997-.0774.1649-.1251.1951-.0479.03-.1263.0501-.2281.0501h-.515c-.1136 0-.1908-.0151-.2387-.0501-.0478-.035-.0906-.0995-.1145-.1995l-.9272-3.2291-.9229 3.2238c-.0299.1001-.0657.1654-.1135.2004-.048.0349-.1322.0501-.2397.0501h-.514c-.1078 0-.1802-.015-.2281-.0501-.0478-.03-.0893-.1002-.1251-.1951l-1.40755-3.86983c-.03585-.09995-.05361-.16538-.05361-.20039.00016-.07984.04839-.1248.14401-.1248z"/></g></svg>

<svg width="26" height="26" viewBox="0 0 26 26" fill="none" xmlns="http://www.w3.org/2000/svg">
<path d="M19.6 1C21.3552 1.19429 22.5366 1.63338 23.4184 2.62575C25 4.40569 25 7.27045 25 13C25 18.7296 25 21.5943 23.4184 23.3743C22.5366 24.3667 21.3552 24.8057 19.6 25M6.40001 25C4.64485 24.8057 3.46342 24.3667 2.58163 23.3743C1 21.5943 1 18.7296 1 13C1 7.27045 1 4.40569 2.58163 2.62575C3.46342 1.63338 4.64485 1.19429 6.40001 1" stroke="white" stroke-width="1.5" stroke-linecap="round" stroke-linejoin="round"/>
<path d="M4.07978 15.162C3.89433 15.022 4.0614 14.8318 4.28266 14.9414C6.821 16.1728 9.95258 16.9189 13.1914 16.9189C15.3764 16.9189 17.7771 16.5387 19.9862 15.7579C20.3154 15.6328 20.5964 15.9374 20.2731 16.1376C18.3036 17.3539 15.4426 17.9999 12.9822 18C9.53395 18 6.42653 16.9339 4.07978 15.162Z" fill="white"/>
<path d="M18.7405 15.0671C19.866 14.4064 21.7164 14.5964 21.9319 14.8166C22.1472 15.0422 21.8721 16.5887 20.8187 17.3294C20.6572 17.4444 20.5013 17.3844 20.5727 17.2345C20.8121 16.7391 21.3451 15.6228 21.0941 15.3571C20.8427 15.0868 19.4294 15.227 18.7889 15.2921C18.5975 15.3121 18.5675 15.1722 18.7405 15.0671Z" fill="white"/>
<path d="M19.3397 9C19.4714 9 19.6095 9.0052 19.7412 9.02021C19.8787 9.03523 20.0046 9.05471 20.1302 9.07471C20.2498 9.09971 20.3631 9.12557 20.4708 9.15557C20.5785 9.1856 20.6632 9.21518 20.723 9.24521C20.8064 9.28508 20.8658 9.32521 20.9017 9.37002C20.9376 9.41 20.9563 9.46534 20.9564 9.53525V9.7708C20.9564 9.87578 20.9083 9.93062 20.8187 9.93076C20.7708 9.93076 20.6924 9.91104 20.5906 9.871C20.2495 9.74093 19.8665 9.6759 19.4417 9.67588C19.1004 9.67588 18.8304 9.72052 18.6449 9.81562C18.4594 9.91071 18.3643 10.0561 18.3642 10.2612C18.3642 10.4014 18.4232 10.5221 18.5429 10.6172C18.6626 10.7123 18.8847 10.8072 19.202 10.8923L20.0524 11.1173C20.4832 11.2324 20.794 11.3929 20.9795 11.598C21.1651 11.8032 21.2549 12.0383 21.2549 12.2985C21.2549 12.5138 21.2011 12.7093 21.0994 12.8795C20.9917 13.0495 20.8485 13.1998 20.6631 13.3198C20.4775 13.445 20.2551 13.5351 19.9977 13.6002C19.7285 13.6702 19.4472 13.7048 19.1421 13.7048C18.8308 13.7048 18.5195 13.6752 18.2202 13.6151C17.9209 13.5551 17.6873 13.4898 17.5317 13.4147C17.436 13.3697 17.3696 13.32 17.3456 13.275C17.3217 13.2299 17.3099 13.1794 17.3099 13.1344V12.8795C17.3099 12.7745 17.358 12.724 17.4476 12.7239C17.4835 12.7239 17.5199 12.7289 17.5558 12.7389C17.5917 12.7489 17.6454 12.769 17.7051 12.789C17.9087 12.864 18.1307 12.9247 18.3642 12.9647C18.6034 13.0047 18.8367 13.0245 19.0758 13.0245C19.453 13.0245 19.7469 12.9694 19.9504 12.8593C20.1539 12.7492 20.2616 12.589 20.2616 12.3838C20.2616 12.2436 20.2074 12.1282 20.0997 12.0331C19.9919 11.9381 19.7884 11.853 19.4953 11.7729L18.627 11.5479C18.1901 11.4328 17.8669 11.2625 17.6694 11.0373C17.4718 10.8171 17.3698 10.5716 17.3698 10.3113C17.3698 10.1012 17.4239 9.916 17.5317 9.75586C17.6394 9.5957 17.7831 9.45553 17.9626 9.34541C18.1421 9.23035 18.3457 9.14531 18.5849 9.08525C18.8244 9.02519 19.0763 9 19.3397 9Z" fill="white"/>
<path fill-rule="evenodd" clip-rule="evenodd" d="M6.99469 9.00967C7.7071 9.00967 8.22884 9.14542 8.56409 9.41572C8.89311 9.68603 9.06025 10.0967 9.06025 10.6471V12.2687H9.07286C9.07286 12.4538 9.09613 12.6041 9.13804 12.7143C9.18593 12.8244 9.24659 12.9445 9.3304 13.0746C9.36021 13.1146 9.3714 13.1548 9.3714 13.1897C9.37135 13.2398 9.33565 13.29 9.25787 13.34L8.8805 13.5501C8.82673 13.58 8.77272 13.5949 8.72492 13.5949C8.66518 13.5948 8.60492 13.5696 8.54517 13.5246C8.46157 13.4497 8.38943 13.3699 8.32968 13.2899C8.26986 13.2049 8.21047 13.1097 8.14468 12.9946C7.67784 13.455 7.09117 13.6853 6.38501 13.6854C5.88213 13.6854 5.48002 13.5654 5.18667 13.3251C4.89338 13.0848 4.74412 12.764 4.74412 12.3636C4.74417 11.9383 4.92363 11.5929 5.28863 11.3326C5.65382 11.0723 6.13945 10.9424 6.75607 10.9424C6.95938 10.9424 7.1687 10.9569 7.38993 10.9819C7.61138 11.007 7.83905 11.0476 8.07845 11.0927V10.7271C8.07845 10.3469 7.9831 10.0816 7.79779 9.92637C7.60621 9.77119 7.28222 9.69609 6.82125 9.69609C6.6118 9.69611 6.39618 9.7161 6.17477 9.76113C5.95337 9.80617 5.73775 9.86071 5.5283 9.93076C5.43275 9.96571 5.36107 9.98576 5.31912 9.9958C5.27742 10.0058 5.24735 10.0107 5.22346 10.0107C5.13967 10.0107 5.09735 9.9611 5.09732 9.85605V9.61084C5.09732 9.53075 5.10943 9.4701 5.13937 9.43506C5.16931 9.40018 5.22315 9.36535 5.3065 9.33047C5.51602 9.24038 5.76793 9.16553 6.06125 9.10547C6.35446 9.04043 6.66559 9.0097 6.99469 9.00967ZM6.97682 11.5374C6.5761 11.5374 6.28292 11.6028 6.08542 11.7378C5.88792 11.8729 5.7922 12.0633 5.79215 12.3135C5.79215 12.5486 5.86335 12.7242 6.01289 12.8443C6.1565 12.9694 6.36632 13.0297 6.64149 13.0298C6.83905 13.0298 7.04301 12.9993 7.25853 12.9393C7.47395 12.8792 7.66563 12.7694 7.82722 12.6193C7.92301 12.5242 7.99523 12.4187 8.03115 12.2985C8.06702 12.1785 8.09104 12.0335 8.09106 11.8635V11.6525C7.91756 11.6175 7.7317 11.5882 7.54025 11.5682C7.34868 11.5481 7.16241 11.5374 6.97682 11.5374Z" fill="white"/>
<path d="M10.3658 9.13008C10.4795 9.13009 10.5573 9.14515 10.5992 9.18018C10.647 9.21021 10.6831 9.28024 10.719 9.37529L11.725 12.6888L12.6584 9.37529C12.6883 9.27537 12.7242 9.21025 12.7719 9.18018C12.8198 9.15015 12.9039 9.13009 13.0116 9.13008H13.491C13.6045 9.1301 13.6828 9.14517 13.7306 9.18018C13.7784 9.2103 13.8202 9.28042 13.8441 9.37529L14.7902 12.7292L15.8256 9.37529C15.8615 9.27526 15.9036 9.21019 15.9454 9.18018C15.9934 9.1502 16.0712 9.13008 16.1788 9.13008H16.7359C16.8313 9.13021 16.885 9.17021 16.8852 9.25488C16.8852 9.27991 16.8796 9.30571 16.8736 9.33574C16.8676 9.36573 16.8554 9.4057 16.8316 9.46055L15.3883 13.3295C15.3525 13.4292 15.3109 13.4944 15.2632 13.5246C15.2153 13.5546 15.1369 13.5747 15.0351 13.5747H14.5201C14.4065 13.5747 14.3293 13.5596 14.2814 13.5246C14.2336 13.4896 14.1908 13.4251 14.1669 13.3251L13.2397 10.096L12.3168 13.3198C12.2869 13.4199 12.2511 13.4852 12.2033 13.5202C12.1553 13.5551 12.0711 13.5703 11.9636 13.5703H11.4496C11.3418 13.5703 11.2694 13.5553 11.2215 13.5202C11.1737 13.4902 11.1322 13.42 11.0964 13.3251L9.68885 9.45527C9.653 9.35532 9.63524 9.28989 9.63524 9.25488C9.6354 9.17504 9.68363 9.13008 9.77925 9.13008H10.3658Z" fill="white"/>
</svg>
